X:1
T:Title
%%score ( 1 2 ) { ( 3 5 ) | 4 }
L:1/8
M:4/4
K:F
V:1 treble nm="Grand Piano, Staff"
V:2 treble 
V:3 bass nm="Choir Pad, Shackelford, CMD"
V:5 bass 
V:4 bass 
V:1
 [Fc]2 [Fd]2 [Fc]2 [FA]2 | [CF]2 [DG]2- [DG][B,D] [B,D]2 | [B,E]2 [B,D]2 C2 [DB]2 | [EB]2 [FA]6 | %4
w: By~Frederick~Henry~Cheesewright,~circa~1889 * * *||||
 [Fc]2 [Fd]2 [Fc]2 [FA]2 | [CF]2 [CE]2- [CE][Cc] [C=B]2 | [CA]2 [=B,G]2 [B,D]2 [B,F]2 | %7
w: |||
 [=B,E]2 C6 | C2 [EG]2- [EG][EG] [EA]2 | [EG]2 [CF]2 [EG]2 [FA]2 | D2 [^FA]2- [FA][FA] [EB]2 | %11
w: ||||
 [DA]2 [Dd]6 | [Ec]2 d2 c2 [FA]2 | F2 D2 [D^F]2 [DG]2 | [Dd]2 [Ed]2- [Ed][Gc] [E=B]2 | %15
w: ||||
 [Gc]2 [Ff]6- | [Ff]2 z2 z4 |] %17
w: ||
V:2
 x8 | x8 | x8 | x8 | x8 | x8 | x8 | x8 | x8 | x8 | x8 | x8 | z2 F4 z2 | x8 | x8 | x8 | x8 |] %17
V:3
 A,2 B,2 A,2 C2 | A,2 B,2- B,G, G,2 | G,2 F,2 E,2 F,2 | G,2 A,6 | A,2 B,2 A,2 C2 | %5
 A,2 G,2- G,E, E,2 | E,2 F,2 F,2 D,2 | F,2 E,6 | E,2 B,2- B,B, C2 | B,2 A,2 B,2[K:treble] C2 | %10
 A,2 C2- CC D2 | C2[K:bass] z2 A,2 B,2 | C2 D2 C2 A,2 | F,2 D,2 A,2 B,2 | B,2 B,2- B,B, C2 | %15
 B,2 A,6- | A,2 z2 z4 |] %17
V:4
 F,2 F,2 F,2 C,2 | C,2 B,,2- B,,B,, B,,2 | G,,2 C,2 C,2 C,2 | C,2 F,,6 | F,2 F,2 F,2 C,2 | %5
 C,2 G,,2- G,,G,, G,,2 | G,,2 G,,2 G,,2 G,,2 | G,,2 C,6 | C,2 C,2- C,C, C,2 | C,2 F,2 F,2 F,2 | %10
 ^F,2 D,2- D,D, D,2 | ^F,2 G,2 z4 | [C,G,]2 [F,A,]4 z2 | z4 C,2 B,,2 | G,,2 C,2- C,C, C,2 | %15
 C,2 [F,,F,]6- | [F,,F,]2 z2 z4 |] %17
V:5
 x8 | x8 | x8 | x8 | x8 | x8 | x8 | x8 | x8 | x6[K:treble] x2 | x8 | z2[K:bass] B,4 z2 | x8 | x8 | %14
 x8 | x8 | x8 |] %17

